Suru++-Ubuntu/apps/scalable/griffith.svg

<svg width="256" height="256" version="1.1" viewBox="0 0 67.73 67.73" xmlns="http://www.w3.org/2000/svg" xmlns:xlink="http://www.w3.org/1999/xlink">
 <defs>
  <clipPath id="clipPath1082-3-5">
   <path d="M 361.9375,-212 C 507.2348,-212 528,-191.28677 528,-46.125 V 70.125 C 528,215.28618 507.2348,236 361.9375,236 H 214.0625 C 68.7652,236 48,215.28618 48,70.125 V -46.125 C 48,-191.28677 68.7652,-212 214.0625,-212 Z" style="fill:#8c59d9"/>
  </clipPath>
  <filter id="filter4569-2" x="-.01" y="-.01" width="1.023" height="1.025" style="color-interpolation-filters:sRGB">
   <feGaussianBlur stdDeviation="1.16"/>
  </filter>
  <filter id="filter913" x="-.02" y="-.03" width="1.046" height="1.05" style="color-interpolation-filters:sRGB">
   <feGaussianBlur stdDeviation="2.32"/>
  </filter>
  <linearGradient id="linearGradient906" x1="296" x2="296" y1="-212" y2="236" gradientUnits="userSpaceOnUse">
   <stop style="stop-color:#ffffff" offset="0"/>
   <stop style="stop-color:#ffffff;stop-opacity:.09803922" offset=".125"/>
   <stop style="stop-color:#000000;stop-opacity:.09803922" offset=".925"/>
   <stop style="stop-color:#000000;stop-opacity:.49803922" offset="1"/>
  </linearGradient>
  <linearGradient id="linearGradient4216" x1="56" x2="56" y1="288" y2="83.578" gradientTransform="matrix(-.19921875 0 0 .19921875 119.49533 -55.370508)" gradientUnits="userSpaceOnUse" spreadMethod="reflect">
   <stop style="stop-color:#ffffff;stop-opacity:.97196263" offset="0"/>
   <stop style="stop-color:#ffffff;stop-opacity:.91588783" offset=".646"/>
   <stop style="stop-color:#ffffff;stop-opacity:0" offset="1"/>
  </linearGradient>
 </defs>
 <g transform="translate(0,-229.26666)">
  <path transform="matrix(.26970778 0 0 .26970778 -7.1289177 220.56049)" d="m188.96876 45.999995c72.64865 0 83.03125 10.356615 83.03125 82.937505v58.125c0 72.58059-10.3826 82.9375-83.03125 82.9375h-73.9375c-72.648654 0-83.031254-10.35691-83.031254-82.9375v-58.125c0-72.58089 10.3826-82.937505 83.031254-82.937505z" style="filter:url(#filter913);opacity:.2"/>
  <path transform="matrix(.26970778 0 0 .26970778 -7.1289177 220.56049)" d="m188.96876 43.999995c72.64865 0 83.03125 10.356615 83.03125 82.937505v58.125c0 72.58059-10.3826 82.9375-83.03125 82.9375h-73.9375c-72.648654 0-83.031254-10.35691-83.031254-82.9375v-58.125c0-72.58089 10.3826-82.937505 83.031254-82.937505z" style="filter:url(#filter4569-2);opacity:.1"/>
  <path d="m23.895906 232.42763c-9.797337 0-15.39413 0.69699-18.544517 3.84334-3.150381 3.14634-3.849657 8.73736-3.849657 18.52555v15.67677c0 9.78815 0.699276 15.3792 3.849657 18.52555 3.150387 3.14636 8.747179 3.84333 18.544517 3.84333h19.94152c9.797339 0 15.394134-0.69697 18.544517-3.84333 3.150384-3.14635 3.849659-8.7374 3.849659-18.52555v-15.67677c0-9.78819-0.699275-15.37921-3.849659-18.52555-3.150383-3.14635-8.74718-3.84334-18.544517-3.84334z" style="fill:#4d4d4d"/>
  <g transform="matrix(.5675661 0 0 .5675661 -1.3907281 261.49722)">
   <path d="m106.90019-40.229888c0.52006 0.46294 0.99865 0.96523 1.43889 1.50971v3.27154h-7.96875v-4.78125zm-83.029856 0v4.78125h-7.96875v-3.27154c0.44024-0.54448 0.91883-1.04677 1.43889-1.50971zm84.468746 7.96875v4.78125h-7.96875v-4.78125zm-84.468746 0v4.78125h-7.96875v-4.78125zm84.468746 7.96875v4.78125h-7.96875v-4.78125zm-84.468746 0v4.78125h-7.96875v-4.78125zm84.468746 7.96876v4.78125h-7.96875v-4.78125zm-84.468746 0v4.78125h-7.96875v-4.78125zm84.468746 7.9687505v4.781251h-7.96875v-4.781251zm-84.468746 0v4.781251h-7.96875v-4.781251zm84.468746 7.968751v4.78125h-7.96875v-4.78125zm-84.468746 0v4.78125h-7.96875v-4.78125zm84.468746 7.96875v4.7812485h-7.96875v-4.7812485zm-84.468746 0v4.7812485h-7.96875v-4.7812485zm84.468746 7.9687485v4.78125h-7.96875v-4.78125zm-84.468746 0v4.78125h-7.96875v-4.78125zm84.468746 7.968741v4.78125h-7.96875v-4.78125zm-84.468746 0v4.78125h-7.96875v-4.78125zm84.468746 7.96875v4.781252h-7.96875v-4.781252zm-84.468746 0v4.781252h-7.96875v-4.781252zm84.468746 7.968752v3.27155c-0.44024 0.54449-0.91883 1.04677-1.43889 1.5097h-6.52986v-4.78125zm-84.468746 0v4.78125h-6.52986c-0.52006-0.46293-0.99865-0.96522-1.43889-1.5097v-3.27155z" style="fill:url(#linearGradient4216);opacity:.6"/>
   <path d="m57.401328-25.782479-7.01001 14.27527v11.80372c-0.98412 1.15307-2.05977 2.31501-3.18127 3.43652-3.68617 3.6861599-7.81888 6.9102597-10.5835 7.8317897l-4.656735-4.6505198-14.27526 7.0100098v34.00415h50.999985v-63.2644c-3.07128-6.6626-6.44834-9.14836-11.29321-10.44654zm-19.43628 45.6211c1e-3 -1e-3 5e-3 1e-3 6e-3 0-0.52011 0.3248-1.0461 0.64281-1.57507 0.95874 0.52911-0.31588 1.04862-0.63399 1.56885-0.95874zm-4.799915 2.80151c2e-3 -7.9e-4 5e-3 8e-4 6e-3 0-0.54622 0.29865-1.1014 0.59378-1.656 0.88404 0.55467-0.29023 1.10348-0.58542 1.64979-0.88404z" style="fill-opacity:0;opacity:.05"/>
   <path d="m91.585216-50.783555c-0.635378-0.04881-1.214051-0.116613-1.880169-0.155694-3.43867-0.201746-7.291445-0.27861-11.606946-0.27861h-35.135883c-3.832095 0-7.170333 0.09283-10.306768 0.247654v105.94939c3.136436 0.154816 6.474672 0.247654 10.306768 0.247654h35.135883c4.315506 0 8.168272-0.07687 11.606946-0.278612 0.666118-0.03908 1.244791-0.106884 1.880169-0.155692z" style="fill:#527eb2"/>
   <g transform="matrix(1.0866037 0 0 .92029873 -1.3505112 2.781361)" style="fill:#ffbf00">
    <path d="m73.168678 16.54049v-13.091533h-10.773581v-5.4194376h17.303024v20.926865q-3.819724 2.709719-8.422981 4.113549-4.603258 1.371183-9.826812 1.371183-11.426525 0-17.890674-6.660032-6.431501-6.692679-6.431501-18.608912 0-11.948881 6.431501-18.608913 6.464149-6.692679 17.890674-6.692679 4.766493 0 9.043278 1.1753 4.309433 1.1753 7.933274 3.460605v7.019151q-3.656488-3.101486-7.770037-4.668552-4.11355-1.567066-8.651512-1.567066-8.945337 0-13.450653 4.995024-4.472668 4.995023-4.472668 14.88713 0 9.8594588 4.472668 14.854482 4.505316 4.995024 13.450653 4.995024 3.493252 0 6.235618-0.58765 2.742366-0.620297 4.929729-1.893538z"/>
   </g>
   <path transform="matrix(.46617184 0 0 .46617184 2.4503368 -56.787324)" d="m250.32422 153.73047v-57.240236c0-9.248683-0.16579-17.505738-0.59961-24.875-0.21691-3.684631-0.50107-7.146805-0.86523-10.40039-0.36417-3.253586-0.80843-6.298071-1.34571-9.146485-0.53727-2.848413-1.16609-5.501588-1.90234-7.970703-0.73626-2.469115-1.57992-4.75345-2.54102-6.86914-0.96109-2.11569-2.04015-4.061471-3.25195-5.84961-1.2118-1.788138-2.55655-3.41979-4.04492-4.90625-1.48837-1.486464-3.11989-2.827003-4.91016-4.037109-1.79026-1.210106-3.73936-2.290381-5.85742-3.25s-4.40521-1.800153-6.87695-2.535156c-2.47175-0.735004-5.12718-1.364132-7.97852-1.900391s-5.89943-0.97841-9.15625-1.341797-6.72195-0.646895-10.41016-0.863281c-7.3764-0.432773-15.64111-0.597656-24.89843-0.597656h-75.371097c-9.257326 0-17.522029 0.164883-24.898437 0.597656-3.688204 0.216386-7.153336 0.499894-10.410157 0.863281s-6.304914 0.805538-9.15625 1.341797c-2.851335 0.536259-5.506767 1.165387-7.978515 1.900391-2.471748 0.735003-4.758895 1.575537-6.876953 2.535156-2.118059 0.959619-4.067156 2.039894-5.857422 3.25s-3.421785 2.550645-4.910157 4.037109c-1.488368 1.48646-2.833121 3.118112-4.044921 4.90625-1.211801 1.788139-2.290858 3.73392-3.251953 5.84961-0.961096 2.11569-1.804763 4.400025-2.541016 6.86914-0.7362536 2.469115-1.3650683 5.12229-1.9023439 7.970703-0.5372755 2.848414-0.9815419 5.892899-1.3457031 9.146485-0.3641612 3.253585-0.6483238 6.715759-0.8652344 10.40039-0.4338211 7.369262-0.5996094 15.626317-0.5996094 24.875v59.251956c0 2.44722 0.1331559 4.27172 0.1582032 6.58203 13.740691 60.15098 137.68089-92.766368 244.49024-8.59375z" style="fill:#ffffff;opacity:.1"/>
  </g>
  <path transform="matrix(.13485389 0 0 .13485389 -4.9712557 261.01666)" d="M 361.9375,-212 C 507.2348,-212 528,-191.28677 528,-46.125 V 70.125 C 528,215.28618 507.2348,236 361.9375,236 H 214.0625 C 68.7652,236 48,215.28618 48,70.125 V -46.125 C 48,-191.28677 68.7652,-212 214.0625,-212 Z" clip-path="url(#clipPath1082-3-5)" style="fill:none;opacity:.4;stroke-linecap:round;stroke-linejoin:round;stroke-width:8;stroke:url(#linearGradient906)"/>
 </g>
</svg>

<svg xmlns="http://www.w3.org/2000/svg" xmlns:xlink="http://www.w3.org/1999/xlink" width="256" height="256" version="1.1" viewBox="0 0 67.73 67.73">
 <defs>
  <linearGradient id="linearGradient1013">
   <stop style="stop-color:#ffffff" offset="0"/>
   <stop offset=".125" style="stop-color:#ffffff;stop-opacity:0.09803922"/>
   <stop offset=".925" style="stop-color:#000000;stop-opacity:0.09803922"/>
   <stop style="stop-color:#000000;stop-opacity:0.49803922" offset="1"/>
  </linearGradient>
  <clipPath id="clipPath1082-3-5" clipPathUnits="userSpaceOnUse">
   <path style="fill:#8c59d9" d="M 361.9375,-212 C 507.2348,-212 528,-191.28677 528,-46.125 V 70.125 C 528,215.28618 507.2348,236 361.9375,236 H 214.0625 C 68.7652,236 48,215.28618 48,70.125 V -46.125 C 48,-191.28677 68.7652,-212 214.0625,-212 Z"/>
  </clipPath>
  <filter id="filter4569-2" width="1.023" height="1.025" x="-.01" y="-.01" style="color-interpolation-filters:sRGB">
   <feGaussianBlur stdDeviation="1.16"/>
  </filter>
  <filter id="filter913" width="1.046" height="1.05" x="-.02" y="-.03" style="color-interpolation-filters:sRGB">
   <feGaussianBlur stdDeviation="2.32"/>
  </filter>
  <linearGradient id="linearGradient906" x1="296" x2="296" y1="-212" y2="236" gradientUnits="userSpaceOnUse" xlink:href="#linearGradient1013"/>
  <linearGradient id="linearGradient4216" x1="56" x2="56" y1="288" y2="83.578" gradientTransform="matrix(-0.19921875,0,0,0.19921875,119.49533,-55.370508)" gradientUnits="userSpaceOnUse" spreadMethod="reflect" xlink:href="#linearGradient4210"/>
  <linearGradient id="linearGradient4210">
   <stop offset="0" style="stop-color:#ffffff;stop-opacity:0.97196263"/>
   <stop style="stop-color:#ffffff;stop-opacity:0.91588783" offset=".646"/>
   <stop offset="1" style="stop-color:#ffffff;stop-opacity:0"/>
  </linearGradient>
 </defs>
 <g transform="translate(0,-229.26666)">
  <path d="m 188.96876,45.999995 c 72.64865,0 83.03125,10.356615 83.03125,82.937505 v 58.125 c 0,72.58059 -10.3826,82.9375 -83.03125,82.9375 h -73.9375 C 42.382606,270 32.000006,259.64309 32.000006,187.0625 v -58.125 c 0,-72.58089 10.3826,-82.937505 83.031254,-82.937505 z" transform="matrix(0.26970778,0,0,0.26970778,-7.1289177,220.56049)" style="opacity:0.2;filter:url(#filter913)"/>
  <path style="opacity:0.1;filter:url(#filter4569-2)" d="m 188.96876,43.999995 c 72.64865,0 83.03125,10.356615 83.03125,82.937505 v 58.125 c 0,72.58059 -10.3826,82.9375 -83.03125,82.9375 h -73.9375 C 42.382606,268 32.000006,257.64309 32.000006,185.0625 v -58.125 c 0,-72.58089 10.3826,-82.937505 83.031254,-82.937505 z" transform="matrix(0.26970778,0,0,0.26970778,-7.1289177,220.56049)"/>
  <path d="m 23.895906,232.42763 c -9.797337,0 -15.39413,0.69699 -18.544517,3.84334 -3.150381,3.14634 -3.849657,8.73736 -3.849657,18.52555 v 15.67677 c 0,9.78815 0.699276,15.3792 3.849657,18.52555 3.150387,3.14636 8.747179,3.84333 18.544517,3.84333 h 19.94152 c 9.797339,0 15.394134,-0.69697 18.544517,-3.84333 3.150384,-3.14635 3.849659,-8.7374 3.849659,-18.52555 v -15.67677 c 0,-9.78819 -0.699275,-15.37921 -3.849659,-18.52555 -3.150383,-3.14635 -8.74718,-3.84334 -18.544517,-3.84334 z" style="fill:#4d4d4d"/>
  <g transform="matrix(0.5675661,0,0,0.5675661,-1.3907281,261.49722)">
   <path style="opacity:0.6;fill:url(#linearGradient4216)" d="m 106.90019,-40.229888 c 0.52006,0.46294 0.99865,0.96523 1.43889,1.50971 v 3.27154 h -7.96875 v -4.78125 z m -83.029856,0 v 4.78125 h -7.96875 v -3.27154 c 0.44024,-0.54448 0.91883,-1.04677 1.43889,-1.50971 z m 84.468746,7.96875 v 4.78125 h -7.96875 v -4.78125 z m -84.468746,0 v 4.78125 h -7.96875 v -4.78125 z m 84.468746,7.96875 v 4.78125 h -7.96875 v -4.78125 z m -84.468746,0 v 4.78125 h -7.96875 v -4.78125 z m 84.468746,7.96876 v 4.78125 h -7.96875 v -4.78125 z m -84.468746,0 v 4.78125 h -7.96875 v -4.78125 z m 84.468746,7.9687505 v 4.781251 h -7.96875 v -4.781251 z m -84.468746,0 v 4.781251 h -7.96875 v -4.781251 z m 84.468746,7.96875099 V 4.3951235 h -7.96875 v -4.78125001 z m -84.468746,0 V 4.3951235 h -7.96875 V -0.38612651 Z M 108.33908,7.5826235 v 4.7812485 h -7.96875 V 7.5826235 Z m -84.468746,0 v 4.7812485 h -7.96875 V 7.5826235 Z m 84.468746,7.9687485 v 4.78125 h -7.96875 v -4.78125 z m -84.468746,0 v 4.78125 h -7.96875 v -4.78125 z m 84.468746,7.968741 v 4.78125 h -7.96875 v -4.78125 z m -84.468746,0 v 4.78125 h -7.96875 v -4.78125 z m 84.468746,7.96875 v 4.781252 h -7.96875 v -4.781252 z m -84.468746,0 v 4.781252 h -7.96875 v -4.781252 z m 84.468746,7.968752 v 3.27155 c -0.44024,0.54449 -0.91883,1.04677 -1.43889,1.5097 h -6.52986 v -4.78125 z m -84.468746,0 v 4.78125 h -6.52986 c -0.52006,-0.46293 -0.99865,-0.96522 -1.43889,-1.5097 v -3.27155 z"/>
   <path d="m 57.401328,-25.782479 -7.01001,14.27527 V 0.29651126 c -0.98412,1.15307004 -2.05977,2.31501004 -3.18127,3.43652004 -3.68617,3.6861599 -7.81888,6.9102597 -10.5835,7.8317897 L 31.969813,6.9143012 17.694553,13.924311 v 34.00415 h 50.999985 v -63.2644 c -3.07128,-6.6626 -6.44834,-9.14836 -11.29321,-10.44654 z m -19.43628,45.6211 c 10e-4,-0.001 0.005,0.001 0.006,0 -0.52011,0.3248 -1.0461,0.64281 -1.57507,0.95874 0.52911,-0.31588 1.04862,-0.63399 1.56885,-0.95874 z m -4.799915,2.80151 c 0.002,-7.9e-4 0.005,8e-4 0.006,0 -0.54622,0.29865 -1.1014,0.59378 -1.656,0.88404 0.55467,-0.29023 1.10348,-0.58542 1.64979,-0.88404 z" style="opacity:0.05;fill:#ff0000;fill-opacity:0"/>
   <path d="m 91.585216,-50.783555 c -0.635378,-0.04881 -1.214051,-0.116613 -1.880169,-0.155694 -3.43867,-0.201746 -7.291445,-0.27861 -11.606946,-0.27861 H 42.962218 c -3.832095,0 -7.170333,0.09283 -10.306768,0.247654 V 54.979183 c 3.136436,0.154816 6.474672,0.247654 10.306768,0.247654 h 35.135883 c 4.315506,0 8.168272,-0.07687 11.606946,-0.278612 0.666118,-0.03908 1.244791,-0.106884 1.880169,-0.155692 z" style="fill:#527eb2"/>
   <g style="font-size:24.38490868px;line-height:0%;font-family:'Bitstream Vera Sans';fill:#ffbf00" transform="matrix(1.0866037,0,0,0.92029873,-1.3505112,2.781361)">
    <path d="M 73.168678,16.54049 V 3.4489567 H 62.395097 V -1.9704809 H 79.698121 V 18.956384 q -3.819724,2.709719 -8.422981,4.113549 -4.603258,1.371183 -9.826812,1.371183 -11.426525,0 -17.890674,-6.660032 -6.431501,-6.692679 -6.431501,-18.60891243 0,-11.94888057 6.431501,-18.60891257 6.464149,-6.692679 17.890674,-6.692679 4.766493,0 9.043278,1.1753 4.309433,1.1753 7.933274,3.460605 v 7.019151 q -3.656488,-3.101486 -7.770037,-4.668552 -4.11355,-1.567066 -8.651512,-1.567066 -8.945337,0 -13.450653,4.995024 -4.472668,4.995023 -4.472668,14.88712957 0,9.85945883 4.472668,14.85448243 4.505316,4.995024 13.450653,4.995024 3.493252,0 6.235618,-0.58765 2.742366,-0.620297 4.929729,-1.893538 z"/>
   </g>
   <path d="M 250.32422 153.73047 L 250.32422 96.490234 C 250.32422 87.241551 250.15843 78.984496 249.72461 71.615234 C 249.5077 67.930603 249.22354 64.468429 248.85938 61.214844 C 248.49521 57.961258 248.05095 54.916773 247.51367 52.068359 C 246.9764 49.219946 246.34758 46.566771 245.61133 44.097656 C 244.87507 41.628541 244.03141 39.344206 243.07031 37.228516 C 242.10922 35.112826 241.03016 33.167045 239.81836 31.378906 C 238.60656 29.590768 237.26181 27.959116 235.77344 26.472656 C 234.28507 24.986192 232.65355 23.645653 230.86328 22.435547 C 229.07302 21.225441 227.12392 20.145166 225.00586 19.185547 C 222.8878 18.225928 220.60065 17.385394 218.12891 16.650391 C 215.65716 15.915387 213.00173 15.286259 210.15039 14.75 C 207.29905 14.213741 204.25096 13.77159 200.99414 13.408203 C 197.73732 13.044816 194.27219 12.761308 190.58398 12.544922 C 183.20758 12.112149 174.94287 11.947266 165.68555 11.947266 L 90.314453 11.947266 C 81.057127 11.947266 72.792424 12.112149 65.416016 12.544922 C 61.727812 12.761308 58.26268 13.044816 55.005859 13.408203 C 51.749038 13.77159 48.700945 14.213741 45.849609 14.75 C 42.998274 15.286259 40.342842 15.915387 37.871094 16.650391 C 35.399346 17.385394 33.112199 18.225928 30.994141 19.185547 C 28.876082 20.145166 26.926985 21.225441 25.136719 22.435547 C 23.346453 23.645653 21.714934 24.986192 20.226562 26.472656 C 18.738194 27.959116 17.393441 29.590768 16.181641 31.378906 C 14.96984 33.167045 13.890783 35.112826 12.929688 37.228516 C 11.968592 39.344206 11.124925 41.628541 10.388672 44.097656 C 9.6524184 46.566771 9.0236037 49.219946 8.4863281 52.068359 C 7.9490526 54.916773 7.5047862 57.961258 7.140625 61.214844 C 6.7764638 64.468429 6.4923012 67.930603 6.2753906 71.615234 C 5.8415695 78.984496 5.6757812 87.241551 5.6757812 96.490234 L 5.6757812 155.74219 C 5.6757812 158.18941 5.8089371 160.01391 5.8339844 162.32422 C 19.574675 222.4752 143.51487 69.557852 250.32422 153.73047 z" transform="matrix(0.46617184,0,0,0.46617184,2.4503368,-56.787324)" style="opacity:0.1;fill:#ffffff"/>
  </g>
  <path style="opacity:0.4;fill:none;stroke:url(#linearGradient906);stroke-width:8;stroke-linecap:round;stroke-linejoin:round" d="M 361.9375,-212 C 507.2348,-212 528,-191.28677 528,-46.125 V 70.125 C 528,215.28618 507.2348,236 361.9375,236 H 214.0625 C 68.7652,236 48,215.28618 48,70.125 V -46.125 C 48,-191.28677 68.7652,-212 214.0625,-212 Z" clip-path="url(#clipPath1082-3-5)" transform="matrix(0.13485389,0,0,0.13485389,-4.9712557,261.01666)"/>
 </g>
</svg>
